src/assets/no-1.svg

<svg fill="none" height="22" viewBox="0 0 41 22" width="41" xmlns="http://www.w3.org/2000/svg" xmlns:xlink="http://www.w3.org/1999/xlink"><linearGradient id="a" gradientUnits="userSpaceOnUse" x1="29.8787" x2="-.792817" y1="-8.18519" y2="2.07376"><stop offset="0" stop-color="#d0d0ff"/><stop offset=".303907" stop-color="#a996f7"/><stop offset=".505226" stop-color="#7280fe"/><stop offset="1" stop-color="#d3d6fe"/></linearGradient><rect fill="#05050a" height="22" rx="4" width="41"/><path d="m15.4013 5.81818v10.18182h-1.8594l-4.42968-6.40838h-.07458v6.40838h-2.1527v-10.18182h1.88921l4.39485 6.40342h.0895v-6.40342zm5.1891 10.33092c-.7723 0-1.4401-.164-2.0036-.4921-.5601-.3315-.9926-.7922-1.2976-1.3821-.3049-.5933-.4573-1.2811-.4573-2.0633 0-.7888.1524-1.4782.4573-2.0681.305-.59331.7375-1.05401 1.2976-1.38214.5635-.33144 1.2313-.49716 2.0036-.49716.7722 0 1.4384.16572 1.9986.49716.5634.32813.9976.78883 1.3025 1.38214.3049.5899.4574 1.2793.4574 2.0681 0 .7822-.1525 1.47-.4574 2.0633-.3049.5899-.7391 1.0506-1.3025 1.3821-.5602.3281-1.2264.4921-1.9986.4921zm.0099-1.6406c.3513 0 .6447-.0994.88-.2983.2353-.2022.4126-.4772.532-.8253.1226-.348.1839-.744.1839-1.1882 0-.4441-.0613-.8402-.1839-1.1882-.1194-.348-.2967-.6231-.532-.8253-.2353-.20214-.5287-.30323-.88-.30323-.3546 0-.6529.10109-.8949.30323-.2386.2022-.4192.4773-.5419.8253-.1193.348-.1789.7441-.1789 1.1882 0 .4442.0596.8402.1789 1.1882.1227.3481.3033.6231.5419.8253.242.1989.5403.2983.8949.2983zm6.3637 1.6208c-.3282 0-.6099-.116-.8452-.3481-.232-.2353-.348-.517-.348-.8451 0-.3248.116-.6032.348-.8352.2353-.2321.517-.3481.8452-.3481.3181 0 .5965.116.8352.3481.2386.232.3579.5104.3579.8352 0 .2187-.0563.4193-.169.6015-.1094.179-.2535.3232-.4325.4326-.179.106-.3762.1591-.5916.1591zm6.0703-10.31112v10.18182h-2.1527v-8.13849h-.0597l-2.3317 1.46164v-1.90909l2.5206-1.59588z" fill="url(#a)"/></svg>

<svg width="41" height="22" viewBox="0 0 41 22" fill="none" xmlns="http://www.w3.org/2000/svg">
    <rect width="41" height="22" rx="4" fill="#05050A"/>
    <path d="M15.4013 5.81818V16H13.5419L9.11222 9.59162H9.03764V16H6.88494V5.81818H8.77415L13.169 12.2216H13.2585V5.81818H15.4013ZM20.5904 16.1491C19.8181 16.1491 19.1503 15.9851 18.5868 15.657C18.0267 15.3255 17.5942 14.8648 17.2892 14.2749C16.9843 13.6816 16.8319 12.9938 16.8319 12.2116C16.8319 11.4228 16.9843 10.7334 17.2892 10.1435C17.5942 9.55019 18.0267 9.08949 18.5868 8.76136C19.1503 8.42992 19.8181 8.2642 20.5904 8.2642C21.3626 8.2642 22.0288 8.42992 22.589 8.76136C23.1524 9.08949 23.5866 9.55019 23.8915 10.1435C24.1964 10.7334 24.3489 11.4228 24.3489 12.2116C24.3489 12.9938 24.1964 13.6816 23.8915 14.2749C23.5866 14.8648 23.1524 15.3255 22.589 15.657C22.0288 15.9851 21.3626 16.1491 20.5904 16.1491ZM20.6003 14.5085C20.9516 14.5085 21.245 14.4091 21.4803 14.2102C21.7156 14.008 21.8929 13.733 22.0123 13.3849C22.1349 13.0369 22.1962 12.6409 22.1962 12.1967C22.1962 11.7526 22.1349 11.3565 22.0123 11.0085C21.8929 10.6605 21.7156 10.3854 21.4803 10.1832C21.245 9.98106 20.9516 9.87997 20.6003 9.87997C20.2457 9.87997 19.9474 9.98106 19.7054 10.1832C19.4668 10.3854 19.2862 10.6605 19.1635 11.0085C19.0442 11.3565 18.9846 11.7526 18.9846 12.1967C18.9846 12.6409 19.0442 13.0369 19.1635 13.3849C19.2862 13.733 19.4668 14.008 19.7054 14.2102C19.9474 14.4091 20.2457 14.5085 20.6003 14.5085ZM26.964 16.1293C26.6358 16.1293 26.3541 16.0133 26.1188 15.7812C25.8868 15.5459 25.7708 15.2642 25.7708 14.9361C25.7708 14.6113 25.8868 14.3329 26.1188 14.1009C26.3541 13.8688 26.6358 13.7528 26.964 13.7528C27.2821 13.7528 27.5605 13.8688 27.7992 14.1009C28.0378 14.3329 28.1571 14.6113 28.1571 14.9361C28.1571 15.1548 28.1008 15.3554 27.9881 15.5376C27.8787 15.7166 27.7346 15.8608 27.5556 15.9702C27.3766 16.0762 27.1794 16.1293 26.964 16.1293ZM33.0343 5.81818V16H30.8816V7.86151H30.8219L28.4902 9.32315V7.41406L31.0108 5.81818H33.0343Z" fill="url(#paint0_linear_7361_3098)"/>
    <defs>
        <linearGradient id="paint0_linear_7361_3098" x1="29.8787" y1="-8.18519" x2="-0.792817" y2="2.07376" gradientUnits="userSpaceOnUse">
            <stop stop-color="#D0D0FF"/>
            <stop offset="0.303907" stop-color="#A996F7"/>
            <stop offset="0.505226" stop-color="#7280FE"/>
            <stop offset="1" stop-color="#D3D6FE"/>
        </linearGradient>
    </defs>
</svg>
